source/docs/software/vision-processing/introduction/diagrams/sources.drawio.svg

<svg xmlns="http://www.w3.org/2000/svg" xmlns:xlink="http://www.w3.org/1999/xlink" width="191" height="248" viewBox="-0.5 -0.5 191 248" style="background-color:#fff"><defs><style>@import url(https://fonts.googleapis.com/css?family=Lato);</style></defs><path d="M95 7v43.63" fill="none" stroke="#000" stroke-miterlimit="10" stroke-dasharray="3 3" pointer-events="stroke"/><path d="M95 55.88l-3.5-7 3.5 1.75 3.5-1.75z" stroke="#000" stroke-miterlimit="10" pointer-events="all"/><path fill="#fff" stroke="#000" pointer-events="all" d="M15 7h160v30H15z"/><switch transform="translate(-.5 -.5)"><foreignObject style="text-align:left" pointer-events="none" width="100%" height="100%" requiredFeatures="http://www.w3.org/TR/SVG11/feature#Extensibility" overflow="visible"><div xmlns="http://www.w3.org/1999/xhtml" style="align-items:unsafe center;justify-content:unsafe center;width:158px;height:1px;padding-top:22px;margin-left:16px" display="flex"><div style="box-sizing:border-box;text-align:center" font-size="0"><div style="line-height:1.2;white-space:normal;word-wrap:normal" display="inline-block" font-size="12" font-family="Lato" color="#000" pointer-events="all">UsbCamera (VideoSource)</div></div></div></foreignObject><text x="95" y="26" font-family="Lato" font-size="12" text-anchor="middle">UsbCamera (VideoSource)</text></switch><path d="M95 87v20-20 13.63" fill="none" stroke="#000" stroke-miterlimit="10" pointer-events="stroke"/><path d="M95 105.88l-3.5-7 3.5 1.75 3.5-1.75z" stroke="#000" stroke-miterlimit="10" pointer-events="all"/><path fill="#fff" stroke="#000" pointer-events="all" d="M15 57h160v30H15z"/><switch transform="translate(-.5 -.5)"><foreignObject style="text-align:left" pointer-events="none" width="100%" height="100%" requiredFeatures="http://www.w3.org/TR/SVG11/feature#Extensibility" overflow="visible"><div xmlns="http://www.w3.org/1999/xhtml" style="align-items:unsafe center;justify-content:unsafe center;width:158px;height:1px;padding-top:72px;margin-left:16px" display="flex"><div style="box-sizing:border-box;text-align:center" font-size="0"><div style="line-height:1.2;white-space:normal;word-wrap:normal" display="inline-block" font-size="12" font-family="Lato" color="#000" pointer-events="all">CvSink (VideoSink)</div></div></div></foreignObject><text x="95" y="76" font-family="Lato" font-size="12" text-anchor="middle">CvSink (VideoSink)</text></switch><path d="M95 147v20-20 13.63" fill="none" stroke="#000" stroke-miterlimit="10" pointer-events="stroke"/><path d="M95 165.88l-3.5-7 3.5 1.75 3.5-1.75z" stroke="#000" stroke-miterlimit="10" pointer-events="all"/><ellipse cx="95" cy="127" rx="95" ry="20" fill="#fff" stroke="#000" pointer-events="all"/><switch transform="translate(-.5 -.5)"><foreignObject style="text-align:left" pointer-events="none" width="100%" height="100%" requiredFeatures="http://www.w3.org/TR/SVG11/feature#Extensibility" overflow="visible"><div xmlns="http://www.w3.org/1999/xhtml" style="align-items:unsafe center;justify-content:unsafe center;width:188px;height:1px;padding-top:127px;margin-left:1px" display="flex"><div style="box-sizing:border-box;text-align:center" font-size="0"><div style="line-height:1.2;white-space:normal;word-wrap:normal" display="inline-block" font-size="12" font-family="Lato" color="#000" pointer-events="all">User OpenCV processing code</div></div></div></foreignObject><text x="95" y="131" font-family="Lato" font-size="12" text-anchor="middle">User OpenCV processing code</text></switch><path d="M95 167v43.63" fill="none" stroke="#000" stroke-miterlimit="10" stroke-dasharray="3 3" pointer-events="stroke"/><path d="M95 215.88l-3.5-7 3.5 1.75 3.5-1.75z" stroke="#000" stroke-miterlimit="10" pointer-events="all"/><path fill="#fff" stroke="#000" pointer-events="all" d="M15 167h160v30H15z"/><switch transform="translate(-.5 -.5)"><foreignObject style="text-align:left" pointer-events="none" width="100%" height="100%" requiredFeatures="http://www.w3.org/TR/SVG11/feature#Extensibility" overflow="visible"><div xmlns="http://www.w3.org/1999/xhtml" style="align-items:unsafe center;justify-content:unsafe center;width:158px;height:1px;padding-top:182px;margin-left:16px" display="flex"><div style="box-sizing:border-box;text-align:center" font-size="0"><div style="line-height:1.2;white-space:normal;word-wrap:normal" display="inline-block" font-size="12" font-family="Lato" color="#000" pointer-events="all">CvSource (VideoSource)</div></div></div></foreignObject><text x="95" y="186" font-family="Lato" font-size="12" text-anchor="middle">CvSource (VideoSource)</text></switch><path fill="#fff" stroke="#000" pointer-events="all" d="M15 217h160v30H15z"/><switch transform="translate(-.5 -.5)"><foreignObject style="text-align:left" pointer-events="none" width="100%" height="100%" requiredFeatures="http://www.w3.org/TR/SVG11/feature#Extensibility" overflow="visible"><div xmlns="http://www.w3.org/1999/xhtml" style="align-items:unsafe center;justify-content:unsafe center;width:158px;height:1px;padding-top:232px;margin-left:16px" display="flex"><div style="box-sizing:border-box;text-align:center" font-size="0"><div style="line-height:1.2;white-space:normal;word-wrap:normal" display="inline-block" font-size="12" font-family="Lato" color="#000" pointer-events="all">MjpegServer (VideoSink)</div></div></div></foreignObject><text x="95" y="236" font-family="Lato" font-size="12" text-anchor="middle">MjpegServer (VideoSink)</text></switch><switch><a transform="translate(0 -5)" xlink:href="https://desk.draw.io/support/solutions/articles/16000042487" target="_blank"><text text-anchor="middle" font-size="10" x="50%" y="100%">Viewer does not support full SVG 1.1</text></a></switch></svg>

<?xml version="1.0" encoding="UTF-8"?>
<!DOCTYPE svg PUBLIC "-//W3C//DTD SVG 1.1//EN" "http://www.w3.org/Graphics/SVG/1.1/DTD/svg11.dtd">
<svg xmlns="http://www.w3.org/2000/svg" xmlns:xlink="http://www.w3.org/1999/xlink" version="1.1" width="191px" height="248px" viewBox="-0.5 -0.5 191 248" content="&lt;mxfile host=&quot;Electron&quot; modified=&quot;2020-04-26T21:15:16.892Z&quot; agent=&quot;5.0 (Macintosh; Intel Mac OS X 10_14_6) AppleWebKit/537.36 (KHTML, like Gecko) draw.io/13.0.1 Chrome/80.0.3987.163 Electron/8.2.1 Safari/537.36&quot; etag=&quot;kI1xcXMQ4w1PhO19WqO7&quot; version=&quot;13.0.1&quot; type=&quot;device&quot;&gt;&lt;diagram id=&quot;cIUImMWRAbTSHeXKXmF1&quot; name=&quot;Page-1&quot;&gt;7Vjfb9owEP5rIm0PQ/nR0O6xpNA9tFolVtrtzUuuiVsnFzkGkv31sxOH4IayssFYpUkI5T6f7fi7784Hlhek5SUneXKNETDLtaPS8i4s1z11ffmtgKoBhmd2A8ScRg3kdMCU/gANtm5zGkFhOApEJmhugiFmGYTCwAjnuDTdHpCZu+Ykhh4wDQnro3c0EkmDnvl2h38CGiftzo6tR1LSOmugSEiESwOCUkwwE/oVr4hAyx8nQqiznVvuRH4e1PggRowZkJwWgxBTCYeFdJk8kJQyRWw9VS7pjS0v4IiieUrLAJgKR0t1s+/khdHVWTlk4jUTRk8hmVUiGI2+3KT35fBbcjv7cKKPK6qWQ4gkpdpELhKMMSNs3KEjjvMsArWqLa3O5woxl6AjwUcQotL6IHN5XG+UiJTp0YgUST1fGVBSca/WGvja+qpXVs8X5bpRaUPxPDHo9EZ9OjRDBc55CFs4aJVKeAxii5+ndRAZItRkXwKmIHglHTgwIujC1CTRuolXfnrqOeekWnPIkSqRdSvfKEA66CR1hlqPVZt7z8K+m798aN6gtdaO0kG1lHaQlT70grC5puG2+B6QFDiR8LuZLBM4rePyvidAU17LhAqY5qSO4FJWLVNKOylhAVxAuTV2evTM5OxUm8uuqKxoTdYKime/HOw1wn+DT7tH01/I0/2mmffKNPP3nWZ/xLzXU3KwmNLsqZOxNN6EiB336Co+ym2zXxX7r1Sx4/xTMvY3FGTgEvmcQxbMFBkcQygKmsV1gxZBP1aMyUYOjqbnoW/qeVNV/rhBzycH0/Owx+r/dmql/F+nyN4r/V4aKvfE36mheuZ/oIaq31HJe6gJxRtsqFZ3zPHuon5FvH7MIZ4CX9SF8Y3d7iv7AIxKs/uZ2ii6+/vAG/8E&lt;/diagram&gt;&lt;/mxfile&gt;" style="background-color: rgb(255, 255, 255);"><defs><style type="text/css">@import url(https://fonts.googleapis.com/css?family=Lato);&#xa;</style></defs><g><path d="M 95 7 L 95 37 L 95 50.63" fill="none" stroke="#000000" stroke-miterlimit="10" stroke-dasharray="3 3" pointer-events="stroke"/><path d="M 95 55.88 L 91.5 48.88 L 95 50.63 L 98.5 48.88 Z" fill="#000000" stroke="#000000" stroke-miterlimit="10" pointer-events="all"/><rect x="15" y="7" width="160" height="30" fill="#ffffff" stroke="#000000" pointer-events="all"/><g transform="translate(-0.5 -0.5)"><switch><foreignObject style="overflow: visible; text-align: left;" pointer-events="none" width="100%" height="100%" requiredFeatures="http://www.w3.org/TR/SVG11/feature#Extensibility"><div xmlns="http://www.w3.org/1999/xhtml" style="display: flex; align-items: unsafe center; justify-content: unsafe center; width: 158px; height: 1px; padding-top: 22px; margin-left: 16px;"><div style="box-sizing: border-box; font-size: 0; text-align: center; "><div style="display: inline-block; font-size: 12px; font-family: Lato; color: #000000; line-height: 1.2; pointer-events: all; white-space: normal; word-wrap: normal; ">UsbCamera (VideoSource)</div></div></div></foreignObject><text x="95" y="26" fill="#000000" font-family="Lato" font-size="12px" text-anchor="middle">UsbCamera (VideoSource)</text></switch></g><path d="M 95 87 L 95 107 L 95 87 L 95 100.63" fill="none" stroke="#000000" stroke-miterlimit="10" pointer-events="stroke"/><path d="M 95 105.88 L 91.5 98.88 L 95 100.63 L 98.5 98.88 Z" fill="#000000" stroke="#000000" stroke-miterlimit="10" pointer-events="all"/><rect x="15" y="57" width="160" height="30" fill="#ffffff" stroke="#000000" pointer-events="all"/><g transform="translate(-0.5 -0.5)"><switch><foreignObject style="overflow: visible; text-align: left;" pointer-events="none" width="100%" height="100%" requiredFeatures="http://www.w3.org/TR/SVG11/feature#Extensibility"><div xmlns="http://www.w3.org/1999/xhtml" style="display: flex; align-items: unsafe center; justify-content: unsafe center; width: 158px; height: 1px; padding-top: 72px; margin-left: 16px;"><div style="box-sizing: border-box; font-size: 0; text-align: center; "><div style="display: inline-block; font-size: 12px; font-family: Lato; color: #000000; line-height: 1.2; pointer-events: all; white-space: normal; word-wrap: normal; ">CvSink (VideoSink)</div></div></div></foreignObject><text x="95" y="76" fill="#000000" font-family="Lato" font-size="12px" text-anchor="middle">CvSink (VideoSink)</text></switch></g><path d="M 95 147 L 95 167 L 95 147 L 95 160.63" fill="none" stroke="#000000" stroke-miterlimit="10" pointer-events="stroke"/><path d="M 95 165.88 L 91.5 158.88 L 95 160.63 L 98.5 158.88 Z" fill="#000000" stroke="#000000" stroke-miterlimit="10" pointer-events="all"/><ellipse cx="95" cy="127" rx="95" ry="20" fill="#ffffff" stroke="#000000" pointer-events="all"/><g transform="translate(-0.5 -0.5)"><switch><foreignObject style="overflow: visible; text-align: left;" pointer-events="none" width="100%" height="100%" requiredFeatures="http://www.w3.org/TR/SVG11/feature#Extensibility"><div xmlns="http://www.w3.org/1999/xhtml" style="display: flex; align-items: unsafe center; justify-content: unsafe center; width: 188px; height: 1px; padding-top: 127px; margin-left: 1px;"><div style="box-sizing: border-box; font-size: 0; text-align: center; "><div style="display: inline-block; font-size: 12px; font-family: Lato; color: #000000; line-height: 1.2; pointer-events: all; white-space: normal; word-wrap: normal; ">User OpenCV processing code</div></div></div></foreignObject><text x="95" y="131" fill="#000000" font-family="Lato" font-size="12px" text-anchor="middle">User OpenCV processing code</text></switch></g><path d="M 95 167 L 95 182 L 95 210.63" fill="none" stroke="#000000" stroke-miterlimit="10" stroke-dasharray="3 3" pointer-events="stroke"/><path d="M 95 215.88 L 91.5 208.88 L 95 210.63 L 98.5 208.88 Z" fill="#000000" stroke="#000000" stroke-miterlimit="10" pointer-events="all"/><rect x="15" y="167" width="160" height="30" fill="#ffffff" stroke="#000000" pointer-events="all"/><g transform="translate(-0.5 -0.5)"><switch><foreignObject style="overflow: visible; text-align: left;" pointer-events="none" width="100%" height="100%" requiredFeatures="http://www.w3.org/TR/SVG11/feature#Extensibility"><div xmlns="http://www.w3.org/1999/xhtml" style="display: flex; align-items: unsafe center; justify-content: unsafe center; width: 158px; height: 1px; padding-top: 182px; margin-left: 16px;"><div style="box-sizing: border-box; font-size: 0; text-align: center; "><div style="display: inline-block; font-size: 12px; font-family: Lato; color: #000000; line-height: 1.2; pointer-events: all; white-space: normal; word-wrap: normal; ">CvSource (VideoSource)</div></div></div></foreignObject><text x="95" y="186" fill="#000000" font-family="Lato" font-size="12px" text-anchor="middle">CvSource (VideoSource)</text></switch></g><rect x="15" y="217" width="160" height="30" fill="#ffffff" stroke="#000000" pointer-events="all"/><g transform="translate(-0.5 -0.5)"><switch><foreignObject style="overflow: visible; text-align: left;" pointer-events="none" width="100%" height="100%" requiredFeatures="http://www.w3.org/TR/SVG11/feature#Extensibility"><div xmlns="http://www.w3.org/1999/xhtml" style="display: flex; align-items: unsafe center; justify-content: unsafe center; width: 158px; height: 1px; padding-top: 232px; margin-left: 16px;"><div style="box-sizing: border-box; font-size: 0; text-align: center; "><div style="display: inline-block; font-size: 12px; font-family: Lato; color: #000000; line-height: 1.2; pointer-events: all; white-space: normal; word-wrap: normal; ">MjpegServer (VideoSink)</div></div></div></foreignObject><text x="95" y="236" fill="#000000" font-family="Lato" font-size="12px" text-anchor="middle">MjpegServer (VideoSink)</text></switch></g></g><switch><g requiredFeatures="http://www.w3.org/TR/SVG11/feature#Extensibility"/><a transform="translate(0,-5)" xlink:href="https://desk.draw.io/support/solutions/articles/16000042487" target="_blank"><text text-anchor="middle" font-size="10px" x="50%" y="100%">Viewer does not support full SVG 1.1</text></a></switch></svg>
